Yaru++/emblems/16/emblem-video.svg

<svg height="16" width="16" xmlns="http://www.w3.org/2000/svg" xmlns:xlink="http://www.w3.org/1999/xlink"><linearGradient id="a" gradientUnits="userSpaceOnUse" x1="7.89219872" x2="7.89219872" y1="11.47108375" y2="4.48102231791"><stop offset="0" stop-color="#f5f5f5"/><stop offset="1" stop-color="#f1d7e9"/></linearGradient><rect fill="#c43ac4" height="15" rx="7.5" transform="matrix(0 -1 -1 0 0 0)" width="15" x="-15.5" y="-15.5"/><path d="m8 .5c-4.155 0-7.5 3.345-7.5 7.5 0 .084349.008983.16634.0117188.25.13203025-4.0374083 3.4176301-7.25 7.4882812-7.25 4.070651 0 7.356251 3.2125917 7.488281 7.25.002736-.08366.011719-.1656511.011719-.25 0-4.155-3.345-7.5-7.5-7.5z" fill="#fff" opacity=".3"/><path d="m8 15.5c4.155 0 7.5-3.345 7.5-7.5 0-.08435-.009-.16634-.01172-.25-.132029 4.037408-3.417629 7.25-7.48828 7.25s-7.356251-3.212592-7.488281-7.25c-.00274.08366-.011719.165651-.011719.25 0 4.155 3.345 7.5 7.5 7.5z" opacity=".2"/><path d="m5.192 4.502v6.99825s3.3165-1.43457 6.21684-3.50134c0-.00048-.00051-.0007-.00051-.002-.00023-.0007-.0007-.001-.002-.003-.0005-.0005-.0007-.001-.001-.003-.00051-.0007-.00051-.002-.00051-.003-3.0587899-2.1326-6.21209-3.48816-6.21209-3.48816z" fill="url(#a)"/></svg>

<?xml version="1.0" encoding="UTF-8" standalone="no"?>
<svg
   xmlns:dc="http://purl.org/dc/elements/1.1/"
   xmlns:cc="http://creativecommons.org/ns#"
   xmlns:rdf="http://www.w3.org/1999/02/22-rdf-syntax-ns#"
   xmlns:svg="http://www.w3.org/2000/svg"
   xmlns="http://www.w3.org/2000/svg"
   xmlns:xlink="http://www.w3.org/1999/xlink"
   xmlns:sodipodi="http://sodipodi.sourceforge.net/DTD/sodipodi-0.dtd"
   xmlns:inkscape="http://www.inkscape.org/namespaces/inkscape"
   height="16"
   width="16"
   version="1.1"
   id="svg10"
   sodipodi:docname="emblem-video.svg"
   inkscape:version="0.92.5 (2060ec1f9f, 2020-04-08)">
  <metadata
     id="metadata16">
    <rdf:RDF>
      <cc:Work
         rdf:about="">
        <dc:format>image/svg+xml</dc:format>
        <dc:type
           rdf:resource="http://purl.org/dc/dcmitype/StillImage" />
        <dc:title></dc:title>
      </cc:Work>
    </rdf:RDF>
  </metadata>
  <defs
     id="defs14">
    <linearGradient
       inkscape:collect="always"
       xlink:href="#linearGradient4464"
       id="linearGradient932"
       gradientUnits="userSpaceOnUse"
       gradientTransform="matrix(0.02915937,0,0,0.02915937,0.4274,0.53631996)"
       x1="256"
       y1="375"
       x2="256"
       y2="135.28078" />
    <linearGradient
       inkscape:collect="always"
       id="linearGradient4464">
      <stop
         id="stop4468"
         offset="0"
         style="stop-color:#f5f5f5;stop-opacity:1" />
      <stop
         id="stop4466"
         offset="1"
         style="stop-color:#f1d7e9;stop-opacity:1" />
    </linearGradient>
  </defs>
  <sodipodi:namedview
     pagecolor="#ffffff"
     bordercolor="#666666"
     borderopacity="1"
     objecttolerance="10"
     gridtolerance="10"
     guidetolerance="10"
     inkscape:pageopacity="0"
     inkscape:pageshadow="2"
     inkscape:window-width="1920"
     inkscape:window-height="1016"
     id="namedview12"
     showgrid="false"
     inkscape:zoom="14.75"
     inkscape:cx="-4.2033898"
     inkscape:cy="8"
     inkscape:window-x="0"
     inkscape:window-y="27"
     inkscape:window-maximized="1"
     inkscape:current-layer="svg10" />
  <rect
     fill="#9b33ae"
     height="15"
     rx="7.5"
     transform="matrix(0 -1 -1 0 0 0)"
     width="15"
     x="-15.5"
     y="-15.5"
     id="rect2"
     style="fill:#c43ac4;fill-opacity:1" />
  <g
     id="g838">
    <path
       inkscape:connector-curvature="0"
       d="M 8,0.5 C 3.845,0.5 0.5,3.845 0.5,8 0.5,8.084349 0.508983,8.16634 0.5117188,8.25 0.64374905,4.2125917 3.9293489,1 8,1 12.070651,1 15.356251,4.2125917 15.488281,8.25 15.491017,8.16634 15.5,8.0843489 15.5,8 15.5,3.845 12.155,0.5 8,0.5 Z"
       id="rect822"
       style="opacity:0.3;fill:#ffffff;fill-opacity:1" />
    <path
       style="opacity:0.2;fill:#000000;fill-opacity:1"
       id="path827"
       d="m 8,15.5 c 4.155,0 7.5,-3.345 7.5,-7.5 C 15.5,7.91565 15.491,7.83366 15.48828,7.75 15.356251,11.787408 12.070651,15 8,15 3.929349,15 0.643749,11.787408 0.511719,7.75 0.508979,7.83366 0.5,7.915651 0.5,8 c 0,4.155 3.345,7.5 7.5,7.5 z"
       inkscape:connector-curvature="0" />
  </g>
  <path
     sodipodi:nodetypes="ccccscccc"
     style="color:#000000;display:inline;overflow:visible;visibility:visible;fill:url(#linearGradient932);fill-opacity:1;fill-rule:nonzero;stroke:none;stroke-width:3.00000024;marker:none;enable-background:accumulate"
     d="m 5.192,4.502 v 6.99825 c 0,0 3.3165,-1.43457 6.21684,-3.50134 0,-4.8e-4 -5.1e-4,-7e-4 -5.1e-4,-0.002 -2.3e-4,-7e-4 -7e-4,-10e-4 -0.002,-0.003 -5e-4,-5e-4 -7e-4,-10e-4 -0.001,-0.003 -5.1e-4,-7e-4 -5.1e-4,-0.002 -5.1e-4,-0.003 C 8.3460301,5.85531 5.19273,4.49975 5.19273,4.49975 Z"
     id="path930"
     inkscape:connector-curvature="0" />
</svg>
